src/components/shared/user-community/images/netways.inline.svg

<svg xmlns="http://www.w3.org/2000/svg" xml:space="preserve" reserveAspectRatio="xMinYMid meet" style="fill-rule:evenodd;clip-rule:evenodd;stroke-linejoin:round;stroke-miterlimit:2" version="1.1" viewBox="0 0 596 87"><path d="M1018.89 5.746H899.246L694.887 336.211V5.746H581.07v481.465h148.418l175.578-275.809v275.809h113.824V5.746M1490.66 5.746h-348.25v481.465h348.25v-93.129h-224.73V310.98h208.56v-93.113h-208.56V98.871h224.73V5.746M1971.47 394.082h-150.36V5.746h-124.17v388.336h-150.35v93.129h424.88v-93.129M2672.26 483.992 2444.03 8.625h-73.15l-14.04 393.637L2172.38 8.625h-70.31l-19.47 475.367h64.23l12.65-394.598 186.14 394.598h64.2l12.95-398.711 187.52 398.711h61.97M2958.78 194.109l-30.16 233.961-137.73-233.961h167.89Zm86.83-185.484h-64.1l-16.13 133.449h-204.71L2682.74 8.625h-66.86l282.86 475.367h83.64l63.23-475.367M3562.29 483.992l-227.58-266.898L3286.5 8.625h-63.9l46.68 201.77-106.07 273.597h67.81l82.44-213.605 179.61 213.605h69.22M3684.25 0c-30.87 0-60.25 3.254-88.12 9.742-27.89 6.488-55.22 16.446-82.05 29.848l15.32 72.476h4.48c20.43-19.371 45.49-34.214 75.18-44.543 29.69-10.328 58.37-15.472 86.03-15.472 45.34 0 80.09 8.984 104.25 26.969 24.15 17.984 36.23 40.918 36.23 68.8 0 14.684-4.31 26.922-12.93 36.711-8.62 9.789-21.22 17.028-37.84 21.703-13.83 3.84-30.28 7.512-49.31 11.02-19.05 3.516-37.2 7.289-54.44 11.336-33.41 7.445-59.28 20.215-77.57 38.308-18.32 18.098-27.46 40.547-27.46 67.364 0 45.336 19.2 83.051 57.63 113.176 38.41 30.117 88.05 45.167 148.93 45.167 33.19 0 63.36-3.46 90.51-10.375 27.12-6.91 50.47-15.054 70.06-24.421l-14.36-67.996h-4.46c-15.12 13.839-36.67 25.753-64.66 35.753-27.99 10.004-57.41 15.004-88.26 15.004-38.75 0-69.66-8.515-92.75-25.543-23.09-17.023-34.64-38.617-34.64-64.804 0-14.047 4.14-26.387 12.45-37.035 8.31-10.645 23.08-18.629 44.38-23.934 13.61-3.195 31.71-7.09 54.27-11.656 22.56-4.582 41.5-8.887 56.83-12.934 30.22-8.301 53.15-20.652 68.79-37.031 15.65-16.395 23.47-37.031 23.47-61.942 0-20.847-5.12-41.613-15.33-62.25-10.21-20.64-24.48-38.308-42.78-52.992-19.58-15.754-42.52-28.101-68.79-37.035C3751.02 4.477 3720 0 3684.25 0" style="fill-rule:nonzero" transform="matrix(.133333 0 0 -.133333 0 86.08)"/><path d="M0 5.973h486.184v477.8H0V5.973M4467.84 249.066l-201.18-117.351L4057.09 5.973v477.8l209.57-117.351 201.18-117.356" style="fill:#f15a22" transform="matrix(.133333 0 0 -.133333 0 86.08)"/><path d="M4397.52 576.18c0 2.554-.49 4.824-1.48 6.812-1 1.988-2.66 3.613-5 4.895a20.852 20.852 0 0 1-7.03 2.343c-2.49.344-5.6.532-9.36.532h-15.86v-32.887h13.51c4.41 0 8.21.332 11.4 1.016 3.18.668 5.81 1.828 7.86 3.453 2.2 1.773 3.75 3.719 4.63 5.855.9 2.121 1.33 4.793 1.33 7.981Zm37.47-69.485h-23.73l-35.23 37.778h-17.24v-37.778h-17.56v97.371h33.21c6.66 0 12.16-.289 16.5-.859 4.31-.566 8.57-1.949 12.76-4.141 4.47-2.421 7.75-5.351 9.84-8.789 2.1-3.437 3.15-7.742 3.15-12.929 0-6.875-2.01-12.614-6.03-17.192-4-4.566-9.51-8.203-16.54-10.894l40.87-42.567Zm20.43 46.825c0 21.992-7.78 40.855-23.36 56.601-15.58 15.754-34.35 23.633-56.34 23.633-22.01 0-40.78-7.879-56.35-23.633-15.58-15.746-23.36-34.609-23.36-56.601 0-22.008 7.78-40.868 23.36-56.618 15.57-15.75 34.34-23.632 56.35-23.632 21.99 0 40.76 7.882 56.34 23.632 15.58 15.75 23.36 34.61 23.36 56.618Zm12.34 0c0-25.407-8.99-47.098-26.97-65.082-17.99-17.985-39.68-26.977-65.07-26.977-25.41 0-47.1 8.992-65.09 26.977-17.97 17.984-26.97 39.675-26.97 65.082 0 25.39 9 47.085 26.97 65.07 17.99 17.976 39.68 26.976 65.09 26.976 25.39 0 47.08-9 65.07-26.976 17.98-17.985 26.97-39.68 26.97-65.07" style="fill-rule:nonzero" transform="matrix(.133333 0 0 -.133333 0 86.08)"/></svg>

<?xml version="1.0" encoding="UTF-8" standalone="no"?>
<!DOCTYPE svg PUBLIC "-//W3C//DTD SVG 1.1//EN" "http://www.w3.org/Graphics/SVG/1.1/DTD/svg11.dtd">
<svg reserveAspectRatio="xMinYMid meet" viewBox="0 0 596 87" version="1.1" xmlns="http://www.w3.org/2000/svg" xmlns:xlink="http://www.w3.org/1999/xlink" xml:space="preserve" xmlns:serif="http://www.serif.com/" style="fill-rule:evenodd;clip-rule:evenodd;stroke-linejoin:round;stroke-miterlimit:2;">
    <g transform="matrix(0.133333,0,0,-0.133333,0,86.08)">
        <g id="g10">
            <g id="g12">
                <path id="path14" d="M1018.89,5.746L899.246,5.746L694.887,336.211L694.887,5.746L581.07,5.746L581.07,487.211L729.488,487.211L905.066,211.402L905.066,487.211L1018.89,487.211L1018.89,5.746" style="fill-rule:nonzero;"/>
                <path id="path16" d="M1490.66,5.746L1142.41,5.746L1142.41,487.211L1490.66,487.211L1490.66,394.082L1265.93,394.082L1265.93,310.98L1474.49,310.98L1474.49,217.867L1265.93,217.867L1265.93,98.871L1490.66,98.871L1490.66,5.746" style="fill-rule:nonzero;"/>
                <path id="path18" d="M1971.47,394.082L1821.11,394.082L1821.11,5.746L1696.94,5.746L1696.94,394.082L1546.59,394.082L1546.59,487.211L1971.47,487.211L1971.47,394.082" style="fill-rule:nonzero;"/>
                <path id="path20" d="M2672.26,483.992L2444.03,8.625L2370.88,8.625L2356.84,402.262L2172.38,8.625L2102.07,8.625L2082.6,483.992L2146.83,483.992L2159.48,89.394L2345.62,483.992L2409.82,483.992L2422.77,85.281L2610.29,483.992L2672.26,483.992" style="fill-rule:nonzero;"/>
                <path id="path22" d="M2958.78,194.109L2928.62,428.07L2790.89,194.109L2958.78,194.109ZM3045.61,8.625L2981.51,8.625L2965.38,142.074L2760.67,142.074L2682.74,8.625L2615.88,8.625L2898.74,483.992L2982.38,483.992L3045.61,8.625" style="fill-rule:nonzero;"/>
                <path id="path24" d="M3562.29,483.992L3334.71,217.094L3286.5,8.625L3222.6,8.625L3269.28,210.395L3163.21,483.992L3231.02,483.992L3313.46,270.387L3493.07,483.992L3562.29,483.992" style="fill-rule:nonzero;"/>
                <path id="path26" d="M3684.25,0C3653.38,0 3624,3.254 3596.13,9.742C3568.24,16.23 3540.91,26.188 3514.08,39.59L3529.4,112.066L3533.88,112.066C3554.31,92.695 3579.37,77.852 3609.06,67.523C3638.75,57.195 3667.43,52.051 3695.09,52.051C3740.43,52.051 3775.18,61.035 3799.34,79.02C3823.49,97.004 3835.57,119.938 3835.57,147.82C3835.57,162.504 3831.26,174.742 3822.64,184.531C3814.02,194.32 3801.42,201.559 3784.8,206.234C3770.97,210.074 3754.52,213.746 3735.49,217.254C3716.44,220.77 3698.29,224.543 3681.05,228.59C3647.64,236.035 3621.77,248.805 3603.48,266.898C3585.16,284.996 3576.02,307.445 3576.02,334.262C3576.02,379.598 3595.22,417.313 3633.65,447.438C3672.06,477.555 3721.7,492.605 3782.58,492.605C3815.77,492.605 3845.94,489.145 3873.09,482.23C3900.21,475.32 3923.56,467.176 3943.15,457.809L3928.79,389.813L3924.33,389.813C3909.21,403.652 3887.66,415.566 3859.67,425.566C3831.68,435.57 3802.26,440.57 3771.41,440.57C3732.66,440.57 3701.75,432.055 3678.66,415.027C3655.57,398.004 3644.02,376.41 3644.02,350.223C3644.02,336.176 3648.16,323.836 3656.47,313.188C3664.78,302.543 3679.55,294.559 3700.85,289.254C3714.46,286.059 3732.56,282.164 3755.12,277.598C3777.68,273.016 3796.62,268.711 3811.95,264.664C3842.17,256.363 3865.1,244.012 3880.74,227.633C3896.39,211.238 3904.21,190.602 3904.21,165.691C3904.21,144.844 3899.09,124.078 3888.88,103.441C3878.67,82.801 3864.4,65.133 3846.1,50.449C3826.52,34.695 3803.58,22.348 3777.31,13.414C3751.02,4.477 3720,0 3684.25,0" style="fill-rule:nonzero;"/>
                <path id="path28" d="M0,5.973L486.184,5.973L486.184,483.773L0,483.773L0,5.973" style="fill:rgb(241,90,34);"/>
                <path id="path30" d="M4467.84,249.066L4266.66,131.715L4057.09,5.973L4057.09,483.773L4266.66,366.422L4467.84,249.066" style="fill:rgb(241,90,34);"/>
                <path id="path32" d="M4397.52,576.18C4397.52,578.734 4397.03,581.004 4396.04,582.992C4395.04,584.98 4393.38,586.605 4391.04,587.887C4388.84,589.086 4386.5,589.867 4384.01,590.23C4381.52,590.574 4378.41,590.762 4374.65,590.762L4358.79,590.762L4358.79,557.875L4372.3,557.875C4376.71,557.875 4380.51,558.207 4383.7,558.891C4386.88,559.559 4389.51,560.719 4391.56,562.344C4393.76,564.117 4395.31,566.063 4396.19,568.199C4397.09,570.32 4397.52,572.992 4397.52,576.18ZM4434.99,506.695L4411.26,506.695L4376.03,544.473L4358.79,544.473L4358.79,506.695L4341.23,506.695L4341.23,604.066L4374.44,604.066C4381.1,604.066 4386.6,603.777 4390.94,603.207C4395.25,602.641 4399.51,601.258 4403.7,599.066C4408.17,596.645 4411.45,593.715 4413.54,590.277C4415.64,586.84 4416.69,582.535 4416.69,577.348C4416.69,570.473 4414.68,564.734 4410.66,560.156C4406.66,555.59 4401.15,551.953 4394.12,549.262L4434.99,506.695ZM4455.42,553.52C4455.42,575.512 4447.64,594.375 4432.06,610.121C4416.48,625.875 4397.71,633.754 4375.72,633.754C4353.71,633.754 4334.94,625.875 4319.37,610.121C4303.79,594.375 4296.01,575.512 4296.01,553.52C4296.01,531.512 4303.79,512.652 4319.37,496.902C4334.94,481.152 4353.71,473.27 4375.72,473.27C4397.71,473.27 4416.48,481.152 4432.06,496.902C4447.64,512.652 4455.42,531.512 4455.42,553.52ZM4467.76,553.52C4467.76,528.113 4458.77,506.422 4440.79,488.438C4422.8,470.453 4401.11,461.461 4375.72,461.461C4350.31,461.461 4328.62,470.453 4310.63,488.438C4292.66,506.422 4283.66,528.113 4283.66,553.52C4283.66,578.91 4292.66,600.605 4310.63,618.59C4328.62,636.566 4350.31,645.566 4375.72,645.566C4401.11,645.566 4422.8,636.566 4440.79,618.59C4458.77,600.605 4467.76,578.91 4467.76,553.52" style="fill-rule:nonzero;"/>
            </g>
        </g>
    </g>
</svg>
